governance/ui/src/components/Socials/discord.svg

<svg width="16" height="18" viewBox="0 0 16 18" fill="none" xmlns="http://www.w3.org/2000/svg">
    <path
        d="M6.20743 7.59082C5.70582 7.59082 5.30981 8.02833 5.30981 8.56209C5.30981 9.09586 5.71462 9.53337 6.20743 9.53337C6.70904 9.53337 7.10505 9.09586 7.10505 8.56209C7.11385 8.02833 6.70904 7.59082 6.20743 7.59082ZM9.4195 7.59082C8.91789 7.59082 8.52188 8.02833 8.52188 8.56209C8.52188 9.09586 8.92669 9.53337 9.4195 9.53337C9.92111 9.53337 10.3171 9.09586 10.3171 8.56209C10.3171 8.02833 9.92111 7.59082 9.4195 7.59082Z"
        fill="white" />
    <path
        d="M13.6962 0.25H1.90389C0.909471 0.25 0.0998535 1.05502 0.0998535 2.05254V13.8828C0.0998535 14.8803 0.909471 15.6853 1.90389 15.6853H11.8833L11.4169 14.0666L12.5433 15.1078L13.6081 16.0878L15.5002 17.7504V2.05254C15.5002 1.05502 14.6906 0.25 13.6962 0.25ZM10.2993 11.6778C10.2993 11.6778 9.98247 11.3015 9.71846 10.969C10.8713 10.6452 11.3113 9.92771 11.3113 9.92771C10.9505 10.164 10.6073 10.3302 10.2993 10.444C9.85927 10.6277 9.43686 10.7502 9.02325 10.8202C8.17843 10.9777 7.40401 10.934 6.744 10.8115C6.24239 10.7152 5.81118 10.5752 5.45037 10.4352C5.24797 10.3565 5.02796 10.2602 4.80796 10.1377C4.78156 10.1202 4.75516 10.1115 4.72875 10.094C4.71115 10.0852 4.70235 10.0765 4.69355 10.0677C4.53515 9.98021 4.44715 9.91896 4.44715 9.91896C4.44715 9.91896 4.86956 10.619 5.98718 10.9515C5.72318 11.284 5.39757 11.6778 5.39757 11.6778C3.45273 11.6165 2.71351 10.3477 2.71351 10.3477C2.71351 7.53016 3.98074 5.24636 3.98074 5.24636C5.24797 4.30134 6.45359 4.32759 6.45359 4.32759L6.54159 4.43259C4.95756 4.8876 4.22714 5.57887 4.22714 5.57887C4.22714 5.57887 4.42075 5.47387 4.74636 5.32511C5.68798 4.91385 6.43599 4.8001 6.744 4.77385C6.7968 4.7651 6.8408 4.75635 6.8936 4.75635C7.43041 4.68635 8.03763 4.66885 8.67124 4.73885C9.50726 4.8351 10.4049 5.08011 11.3201 5.57887C11.3201 5.57887 10.6249 4.9226 9.12885 4.46759L9.25205 4.32759C9.25205 4.32759 10.4577 4.30134 11.7249 5.24636C11.7249 5.24636 12.9921 7.53016 12.9921 10.3477C12.9921 10.3477 12.2441 11.6165 10.2993 11.6778Z"
        fill="white" />
</svg>

<svg width="16" height="18" fill="none" viewBox="0 0 16 18" xmlns="http://www.w3.org/2000/svg">
  <path fill="#fff" d="M6.207 7.59c-.501 0-.897.438-.897.972s.405.971.897.971c.502 0 .898-.437.898-.97.009-.535-.396-.972-.898-.972m3.212 0c-.501 0-.897.438-.897.972s.405.971.897.971c.502 0 .898-.437.898-.97 0-.535-.396-.972-.898-.972"/>
  <path fill="#fff" d="M13.696.25H1.904C.909.25.1 1.055.1 2.053v11.83c0 .997.81 1.802 1.804 1.802h9.98l-.467-1.618 1.126 1.04 1.065.98L15.5 17.75V2.053c0-.998-.81-1.803-1.804-1.803M10.3 11.678s-.317-.377-.58-.709c1.152-.324 1.592-1.041 1.592-1.041a5 5 0 0 1-1.012.516 5.8 5.8 0 0 1-1.276.376 6.2 6.2 0 0 1-2.279-.008 7.4 7.4 0 0 1-1.294-.377 5 5 0 0 1-.642-.297c-.026-.018-.053-.027-.08-.044a.1.1 0 0 1-.034-.026c-.159-.088-.247-.149-.247-.149s.423.7 1.54 1.032c-.264.333-.59.727-.59.727-1.944-.062-2.683-1.33-2.683-1.33 0-2.818 1.267-5.102 1.267-5.102 1.267-.945 2.473-.918 2.473-.918l.088.105c-1.584.455-2.315 1.146-2.315 1.146s.194-.105.52-.254c.941-.411 1.689-.525 1.997-.551.053-.009.097-.018.15-.018a7.2 7.2 0 0 1 4.427.823s-.696-.656-2.192-1.111l.123-.14s1.206-.027 2.473.918c0 0 1.267 2.284 1.267 5.102 0 0-.748 1.268-2.693 1.33"/>
</svg>
